svg/banks/card-recharge/forte-swift.svg

<svg width="100" height="100" viewBox="0 0 100 100" fill="none" xmlns="http://www.w3.org/2000/svg">
<path d="M81.25 25H6.25C4.52271 25 3.125 26.3992 3.125 28.125V71.875C3.125 73.6008 4.52271 75 6.25 75H81.25C82.9773 75 84.375 73.6008 84.375 71.875V28.125C84.375 26.3992 82.9773 25 81.25 25Z" fill="#0DB4C4"/>
<foreignObject x="21.25" y="27.5" width="45" height="45"><div xmlns="http://www.w3.org/1999/xhtml" style="backdrop-filter:blur(5px);clip-path:url(#bgblur_0_91_52066_clip_path);height:100%;width:100%"></div></foreignObject><path data-figma-bg-blur-radius="10" d="M43.75 37.5C36.8561 37.5 31.25 43.1076 31.25 50C31.25 56.8924 36.8561 62.5 43.75 62.5C50.6439 62.5 56.25 56.8924 56.25 50C56.25 43.1076 50.6439 37.5 43.75 37.5Z" fill="white" fill-opacity="0.5"/>
<path d="M21.875 59.375H18.75C17.0227 59.375 15.625 57.9758 15.625 56.25V43.75C15.625 42.0242 17.0227 40.625 18.75 40.625H21.875C23.6023 40.625 25 42.0242 25 43.75C25 45.4758 23.6023 46.875 21.875 46.875V53.125C23.6023 53.125 25 54.5242 25 56.25C25 57.9758 23.6023 59.375 21.875 59.375Z" fill="white" fill-opacity="0.5"/>
<foreignObject x="42.5" y="20.625" width="49.375" height="58.75"><div xmlns="http://www.w3.org/1999/xhtml" style="backdrop-filter:blur(10px);clip-path:url(#bgblur_1_91_52066_clip_path);height:100%;width:100%"></div></foreignObject><path data-figma-bg-blur-radius="20" d="M68.75 59.375H65.625C63.8977 59.375 62.5 57.9758 62.5 56.25C62.5 54.5242 63.8977 53.125 65.625 53.125V46.875C63.8977 46.875 62.5 45.4758 62.5 43.75C62.5 42.0242 63.8977 40.625 65.625 40.625H68.75C70.4773 40.625 71.875 42.0242 71.875 43.75V56.25C71.875 57.9758 70.4773 59.375 68.75 59.375Z" fill="white" fill-opacity="0.5"/>
<foreignObject x="49.125" y="46" width="51.75" height="51.75"><div xmlns="http://www.w3.org/1999/xhtml" style="backdrop-filter:blur(2px);clip-path:url(#bgblur_2_91_52066_clip_path);height:100%;width:100%"></div></foreignObject><path data-figma-bg-blur-radius="4" d="M75 50C62.9395 50 53.125 59.8129 53.125 71.875C53.125 83.9371 62.9395 93.75 75 93.75C87.0605 93.75 96.875 83.9371 96.875 71.875C96.875 59.8129 87.0605 50 75 50Z" fill="#0DB4C4" fill-opacity="0.6"/>
<path d="M75 68.75C74.1394 68.75 73.4375 68.0496 73.4375 67.1875C73.4375 66.3254 74.1394 65.625 75 65.625C75.647 65.625 76.2451 66.0446 76.4526 66.6443C77.0142 68.2755 78.7872 69.1391 80.426 68.5791C82.0587 68.0161 82.9224 66.2369 82.3608 64.6057C81.6162 62.4466 79.9652 60.7971 77.9297 59.9701C77.5177 58.725 76.3824 57.8125 75 57.8125C73.6206 57.8125 72.4884 58.7189 72.0734 59.9548C69.2139 61.1176 67.1875 63.916 67.1875 67.1875C67.1875 71.4951 70.6909 75 75 75C75.8606 75 76.5625 75.7004 76.5625 76.5625C76.5625 77.4246 75.8606 78.125 75 78.125C74.353 78.125 73.7549 77.7054 73.5474 77.1057C72.9858 75.4745 71.2036 74.6063 69.574 75.1709C67.9413 75.7339 67.0776 77.5131 67.6392 79.1443C68.3838 81.3034 70.0348 82.9529 72.0703 83.7799C72.4823 85.025 73.6176 85.9375 75 85.9375C76.3794 85.9375 77.5116 85.0311 77.9266 83.7952C80.7861 82.6324 82.8125 79.834 82.8125 76.5625C82.8125 72.2549 79.3091 68.75 75 68.75Z" fill="white" fill-opacity="0.8"/>
<path d="M52.4017 90.5396C46.1731 90.9821 40.0452 89.8743 34.4055 87.4939C36.1176 87.4756 37.5 86.0901 37.5 84.375C37.5 82.6492 36.1023 81.25 34.375 81.25H25C23.2727 81.25 21.875 82.6492 21.875 84.375V93.75C21.875 95.4758 23.2727 96.875 25 96.875C26.7273 96.875 28.125 95.4758 28.125 93.75V91.4124C34.8358 94.9799 42.2913 96.875 50 96.875C50.9491 96.875 51.8982 96.8414 52.8473 96.7743C54.5685 96.6507 55.8655 95.1553 55.7404 93.4341C55.6183 91.7145 54.1412 90.4129 52.4017 90.5396Z" fill="#0DB4C4"/>
<path d="M75.0005 3.125C73.2732 3.125 71.8755 4.52423 71.8755 6.25V8.58765C65.1647 5.02014 57.7093 3.125 50.0005 3.125C39.4079 3.125 29.392 6.5979 21.0363 13.1683C19.6782 14.2349 19.4433 16.2003 20.5114 17.5568C21.1278 18.3411 22.0434 18.75 22.9711 18.75C23.6455 18.75 24.3261 18.5318 24.8998 18.0817C32.1416 12.3856 40.8239 9.375 50.0005 9.375C55.4204 9.375 60.6939 10.4553 65.595 12.5061C63.883 12.5229 62.5005 13.9099 62.5005 15.625C62.5005 17.3508 63.8982 18.75 65.6255 18.75H75.0005C76.7278 18.75 78.1255 17.3508 78.1255 15.625V6.25C78.1255 4.52423 76.7278 3.125 75.0005 3.125Z" fill="#0DB4C4"/>
<defs>
<clipPath id="bgblur_0_91_52066_clip_path" transform="translate(-21.25 -27.5)"><path d="M43.75 37.5C36.8561 37.5 31.25 43.1076 31.25 50C31.25 56.8924 36.8561 62.5 43.75 62.5C50.6439 62.5 56.25 56.8924 56.25 50C56.25 43.1076 50.6439 37.5 43.75 37.5Z"/>
</clipPath><clipPath id="bgblur_1_91_52066_clip_path" transform="translate(-42.5 -20.625)"><path d="M68.75 59.375H65.625C63.8977 59.375 62.5 57.9758 62.5 56.25C62.5 54.5242 63.8977 53.125 65.625 53.125V46.875C63.8977 46.875 62.5 45.4758 62.5 43.75C62.5 42.0242 63.8977 40.625 65.625 40.625H68.75C70.4773 40.625 71.875 42.0242 71.875 43.75V56.25C71.875 57.9758 70.4773 59.375 68.75 59.375Z"/>
</clipPath><clipPath id="bgblur_2_91_52066_clip_path" transform="translate(-49.125 -46)"><path d="M75 50C62.9395 50 53.125 59.8129 53.125 71.875C53.125 83.9371 62.9395 93.75 75 93.75C87.0605 93.75 96.875 83.9371 96.875 71.875C96.875 59.8129 87.0605 50 75 50Z"/>
</clipPath></defs>
</svg>

<svg width="100" height="100" fill="none" xmlns="http://www.w3.org/2000/svg"><g filter="url(#a)"><path d="M81.25 25h-75a3.124 3.124 0 0 0-3.125 3.125v43.75A3.124 3.124 0 0 0 6.25 75h75c1.727 0 3.125-1.4 3.125-3.125v-43.75A3.124 3.124 0 0 0 81.25 25Z" fill="#0DB4C4"/><g filter="url(#b)"><path d="M43.75 37.5c-6.894 0-12.5 5.608-12.5 12.5s5.606 12.5 12.5 12.5 12.5-5.608 12.5-12.5-5.606-12.5-12.5-12.5Z" fill="#fff" fill-opacity=".5"/></g><path d="M21.875 59.375H18.75a3.124 3.124 0 0 1-3.125-3.125v-12.5a3.124 3.124 0 0 1 3.125-3.125h3.125a3.124 3.124 0 1 1 0 6.25v6.25a3.124 3.124 0 1 1 0 6.25Z" fill="#fff" fill-opacity=".5"/><g filter="url(#c)"><path d="M68.75 59.375h-3.125a3.124 3.124 0 1 1 0-6.25v-6.25a3.124 3.124 0 1 1 0-6.25h3.125c1.727 0 3.125 1.4 3.125 3.125v12.5a3.124 3.124 0 0 1-3.125 3.125Z" fill="#fff" fill-opacity=".5"/></g><g filter="url(#d)"><path d="M75 50c-12.06 0-21.875 9.813-21.875 21.875S62.94 93.75 75 93.75s21.875-9.813 21.875-21.875S87.061 50 75 50Z" fill="#0DB4C4" fill-opacity=".6"/></g><path d="M75 68.75c-.86 0-1.563-.7-1.563-1.563 0-.862.702-1.562 1.563-1.562.647 0 1.245.42 1.453 1.02a3.124 3.124 0 1 0 5.908-2.04c-.745-2.158-2.396-3.808-4.431-4.635-.412-1.245-1.548-2.157-2.93-2.157-1.38 0-2.512.906-2.927 2.142-2.86 1.163-4.885 3.961-4.885 7.233C67.188 71.495 70.69 75 75 75c.86 0 1.563.7 1.563 1.563 0 .862-.702 1.562-1.563 1.562-.647 0-1.245-.42-1.453-1.02a3.124 3.124 0 1 0-5.908 2.04c.745 2.158 2.396 3.808 4.431 4.635.412 1.245 1.548 2.157 2.93 2.157 1.38 0 2.512-.906 2.927-2.142 2.86-1.163 4.885-3.961 4.885-7.233 0-4.307-3.503-7.812-7.812-7.812Z" fill="#fff" fill-opacity=".8"/><path d="M52.402 90.54c-6.229.442-12.357-.666-17.996-3.046a3.121 3.121 0 0 0-.031-6.244H25a3.124 3.124 0 0 0-3.125 3.125v9.375a3.124 3.124 0 1 0 6.25 0v-2.338A46.455 46.455 0 0 0 50 96.875c.95 0 1.898-.034 2.847-.1a3.124 3.124 0 0 0 2.893-3.34 3.112 3.112 0 0 0-3.338-2.895ZM75 3.125a3.124 3.124 0 0 0-3.124 3.125v2.338A46.454 46.454 0 0 0 50 3.125c-10.592 0-20.608 3.473-28.964 10.043a3.123 3.123 0 0 0 1.935 5.582c.674 0 1.355-.218 1.929-.668 7.242-5.696 15.924-8.707 25.1-8.707a40.31 40.31 0 0 1 15.595 3.131 3.12 3.12 0 0 0-3.094 3.119 3.124 3.124 0 0 0 3.125 3.125H75c1.728 0 3.126-1.4 3.126-3.125V6.25A3.124 3.124 0 0 0 75 3.125Z" fill="#0DB4C4"/></g><defs><filter id="a" x="-46.875" y="-46.875" width="193.75" height="193.75" filterUnits="userSpaceOnUse" color-interpolation-filters="sRGB"><feFlood flood-opacity="0" result="BackgroundImageFix"/><feGaussianBlur in="BackgroundImageFix" stdDeviation="25"/><feComposite in2="SourceAlpha" operator="in" result="effect1_backgroundBlur_3088_8037"/><feBlend in="SourceGraphic" in2="effect1_backgroundBlur_3088_8037" result="shape"/></filter><filter id="b" x="21.25" y="27.5" width="45" height="45" filterUnits="userSpaceOnUse" color-interpolation-filters="sRGB"><feFlood flood-opacity="0" result="BackgroundImageFix"/><feGaussianBlur in="BackgroundImageFix" stdDeviation="5"/><feComposite in2="SourceAlpha" operator="in" result="effect1_backgroundBlur_3088_8037"/><feBlend in="SourceGraphic" in2="effect1_backgroundBlur_3088_8037" result="shape"/></filter><filter id="c" x="42.5" y="20.625" width="49.375" height="58.75" filterUnits="userSpaceOnUse" color-interpolation-filters="sRGB"><feFlood flood-opacity="0" result="BackgroundImageFix"/><feGaussianBlur in="BackgroundImageFix" stdDeviation="10"/><feComposite in2="SourceAlpha" operator="in" result="effect1_backgroundBlur_3088_8037"/><feBlend in="SourceGraphic" in2="effect1_backgroundBlur_3088_8037" result="shape"/></filter><filter id="d" x="49.125" y="46" width="51.75" height="51.75" filterUnits="userSpaceOnUse" color-interpolation-filters="sRGB"><feFlood flood-opacity="0" result="BackgroundImageFix"/><feGaussianBlur in="BackgroundImageFix" stdDeviation="2"/><feComposite in2="SourceAlpha" operator="in" result="effect1_backgroundBlur_3088_8037"/><feBlend in="SourceGraphic" in2="effect1_backgroundBlur_3088_8037" result="shape"/></filter></defs></svg>
